X: 1
T: The Cairdin' o't
S: from Flowers of Scottish Melody (J. Murdoch Henderson)
Z: arr. T. Traub 2-6-2000
M: 4/4
L: 1/8
K: G
D |\
"G"G3 A B2 c2 | d2 ge dBGB | "C"cBce "G"dBAG | "Am" AGAB "D"A3 B |\
"C"cBcd "D"efge | "G"dBGB "D"AGFD | "Em"G2 G2 "D"A2 dc | "G"B2 G2 G2 :|
|: ge |\
"G"dBGB d2 ge | dBGB d3 B | "C"cBcd "A"efga | "D"f2 d2 d2 dB |\
"C"cBcd efge | "G"dBGB "D"AGFD | "Em"G2 G2 "D"A2 dc | "G"B2 G2 G2 :|
